; generated by PrusaSlicer 2.8.1+win64 on 2024-12-08 at 13:05:30 UTC

; 

; external perimeters extrusion width = 0.45mm
; perimeters extrusion width = 0.45mm
; infill extrusion width = 0.45mm
; solid infill extrusion width = 0.45mm
; top infill extrusion width = 0.40mm
; first layer extrusion width = 0.70mm

M104 S200 ; set temperature
;TYPE:Custom
G28 ; home all axes
G1 Z5 F5000 ; lift nozzle
M109 S200 ; set temperature and wait for it to be reached
G21 ; set units to millimeters
G90 ; use absolute coordinates
M82 ; use absolute distances for extrusion
G92 E0
; Filament gcode
M107
;LAYER_CHANGE
;Z:0.35
;HEIGHT:0.35
G1 E-2 F2400
G1 Z.35 F7800
G1 X82.195 Y79.443
G1 E0 F2400
;TYPE:Skirt/Brim
;WIDTH:0.7
G1 F1800
G1 X83.434 Y78.291 E.15384
G1 X84.748 Y77.263 E.30554
G1 X86.801 Y75.99 E.52519
G1 X88.325 Y75.254 E.67908
G1 X90.599 Y74.438 E.89876
G1 X92.684 Y73.959 E1.09329
G1 X93.893 Y73.793 E1.20426
G1 X95.521 Y73.688 E1.3526
G1 X104.53 Y73.69 E2.17178
G1 X106.408 Y73.829 E2.34301
G1 X108.337 Y74.167 E2.52109
G1 X111.029 Y74.989 E2.77703
G1 X112.804 Y75.787 E2.95399
G1 X114.514 Y76.772 E3.13343
G1 X116.766 Y78.466 E3.38967
G1 X118.161 Y79.823 E3.56663
G1 X119.432 Y81.333 E3.7461
G1 X120.604 Y83.069 E3.93656
G1 X124.905 Y90.515 E4.71846
G1 X125.854 Y92.444 E4.91394
G1 X126.368 Y93.78 E5.0441
G1 X127.018 Y96.196 E5.2716
G1 X127.366 Y98.992 E5.5278
G1 X127.391 Y100.416 E5.6573
G1 X127.247 Y102.357 E5.83428
G1 X126.906 Y104.301 E6.01375
G1 X126.083 Y106.996 E6.26998
G1 X125.261 Y108.806 E6.45074
G1 X120.276 Y117.445 E7.35768
G1 X119.119 Y119.066 E7.53877
G1 X117.21 Y121.12 E7.79375
G1 X115.7 Y122.39 E7.97316
G1 X114.093 Y123.489 E8.15019
G1 X111.585 Y124.773 E8.40639
G1 X110.256 Y125.285 E8.53589
G1 X108.383 Y125.814 E8.71286
G1 X106.44 Y126.159 E8.8923
G1 X104.263 Y126.308 E9.09072
G1 X95.461 Y126.302 E9.89108
G1 X93.584 Y126.163 E10.06222
G1 X91.655 Y125.825 E10.2403
G1 X88.963 Y125.003 E10.49624
G1 X87.188 Y124.205 E10.6732
G1 X85.942 Y123.516 E10.80267
G1 X84.333 Y122.421 E10.97964
G1 X82.819 Y121.155 E11.1591
G1 X81.458 Y119.763 E11.33612
G1 X80.56 Y118.659 E11.46552
G1 X79.388 Y116.923 E11.65598
G1 X74.82 Y108.98 E12.48915
G1 X74.082 Y107.424 E12.64574
G1 X73.294 Y105.128 E12.86647
G1 X73.004 Y103.943 E12.9774
G1 X72.737 Y102.296 E13.12912
G1 X72.609 Y100.609 E13.28296
G1 X72.682 Y98.184 E13.50356
G1 X73.166 Y95.344 E13.76552
G1 X73.794 Y93.302 E13.95978
G1 X74.794 Y91.061 E14.18292
G1 X79.644 Y82.659 E15.06506
G1 X80.616 Y81.255 E15.22033
G1 X82.156 Y79.488 E15.43346
G1 E13.43346 F2400
G92 E0
G1 X82.156 Y79.488 F7800
G1 X86.993 Y84.01
G1 E2 F2400
G1 F1800
G1 X89.24 Y82.228 E2.26077
G1 X90.588 Y81.501 E2.40003
G1 X92.052 Y80.926 E2.54305
G1 X93.842 Y80.487 E2.71064
G1 X95.398 Y80.326 E2.85288
G1 X104.593 Y80.326 E3.68898
G1 X106.248 Y80.505 E3.84035
G1 X107.854 Y80.892 E3.99056
G1 X110.614 Y82.149 E4.26633
G1 X112.671 Y83.698 E4.50047
G1 X113.899 Y85.017 E4.66434
G1 X114.919 Y86.472 E4.82591
G1 X119.172 Y93.838 E5.59932
G1 X120.073 Y95.871 E5.80152
G1 X120.603 Y97.981 E5.99934
G1 X120.763 Y100.142 E6.19638
G1 X120.545 Y102.345 E6.39768
G1 X119.958 Y104.444 E6.59586
G1 X119.157 Y106.18 E6.76971
G1 X114.632 Y113.964 E7.58841
G1 X113.689 Y115.228 E7.73181
G1 X112.599 Y116.365 E7.87503
G1 X109.907 Y118.249 E8.1738
G1 X108.424 Y118.899 E8.32103
G1 X106.836 Y119.373 E8.47172
G1 X104.288 Y119.682 E8.70511
G1 X95.465 Y119.668 E9.50738
G1 X93.466 Y119.435 E9.69038
G1 X91.516 Y118.88 E9.87473
G1 X89.702 Y118.033 E10.05677
G1 X88.088 Y116.952 E10.23341
G1 X86.061 Y114.941 E10.49304
G1 X85.124 Y113.601 E10.64172
G1 X80.607 Y105.741 E11.46604
G1 X80.064 Y104.526 E11.58705
G1 X79.648 Y103.254 E11.70874
G1 X79.232 Y100.484 E11.96344
G1 X79.262 Y99.059 E12.09304
G1 X79.441 Y97.654 E12.22183
G1 X80.057 Y95.492 E12.42624
G1 X80.842 Y93.8 E12.59584
G1 X85.301 Y86.116 E13.40366
G1 X86.091 Y85.019 E13.52658
G1 X86.953 Y84.055 E13.64417
G1 X86.953 Y84.055 F7800
G1 X87.419 Y84.471
G1 F1800
G1 X87.441 Y84.447 E13.64713
G1 X89.561 Y82.765 E13.8932
G1 X90.868 Y82.06 E14.02823
G1 X92.26 Y81.515 E14.16416
G1 X93.929 Y81.107 E14.32039
G1 X95.414 Y80.951 E14.45616
G1 X104.576 Y80.951 E15.28926
G1 X106.121 Y81.117 E15.43055
G1 X107.678 Y81.493 E15.5762
G1 X110.323 Y82.703 E15.84068
G1 X112.233 Y84.145 E16.05829
G1 X113.401 Y85.395 E16.21385
G1 X114.385 Y86.796 E16.36952
G1 X118.623 Y94.137 E17.14028
G1 X119.474 Y96.05 E17.33066
G1 X119.982 Y98.054 E17.51865
G1 X120.138 Y100.161 E17.71076
G1 X119.926 Y102.254 E17.90205
G1 X119.364 Y104.25 E18.0906
G1 X118.61 Y105.878 E18.25374
G1 X114.12 Y113.606 E19.06644
G1 X113.225 Y114.81 E19.20285
G1 X112.169 Y115.911 E19.34157
G1 X109.628 Y117.689 E19.62357
G1 X108.192 Y118.319 E19.76616
G1 X106.683 Y118.766 E19.90927
G1 X104.27 Y119.057 E20.13027
G1 X95.52 Y119.045 E20.9259
G1 X93.564 Y118.817 E21.10496
G1 X91.713 Y118.286 E21.28006
G1 X89.99 Y117.478 E21.4531
G1 X88.462 Y116.45 E21.62056
G1 X86.557 Y114.56 E21.86457
G1 X85.659 Y113.277 E22.00697
G1 X81.171 Y105.472 E22.82564
G1 X80.641 Y104.287 E22.94368
G1 X80.25 Y103.086 E23.05853
G1 X79.857 Y100.47 E23.29907
G1 X79.884 Y99.122 E23.42167
G1 X80.058 Y97.757 E23.54679
G1 X80.65 Y95.688 E23.74247
G1 X81.389 Y94.102 E23.90157
G1 X85.817 Y86.468 E24.70405
G1 X86.568 Y85.423 E24.82106
G1 X87.379 Y84.516 E24.93169
G1 X87.379 Y84.516 F7800
G1 X87.844 Y84.933
G1 F1800
G1 X87.888 Y84.884 E24.93768
G1 X89.882 Y83.302 E25.16913
G1 X91.147 Y82.62 E25.29981
G1 X92.467 Y82.105 E25.42865
G1 X94.016 Y81.726 E25.57365
G1 X95.431 Y81.576 E25.70304
G1 X104.559 Y81.576 E26.53305
G1 X106.033 Y81.736 E26.66787
G1 X107.502 Y82.093 E26.80533
G1 X109.975 Y83.223 E27.05256
G1 X111.796 Y84.592 E27.25972
G1 X112.902 Y85.772 E27.40678
G1 X113.85 Y87.121 E27.5567
G1 X118.073 Y94.435 E28.32466
G1 X118.875 Y96.23 E28.50343
G1 X119.369 Y98.181 E28.68643
G1 X119.513 Y100.178 E28.86849
G1 X119.307 Y102.162 E29.04986
G1 X118.77 Y104.055 E29.22878
G1 X118.062 Y105.576 E29.38133
G1 X113.608 Y113.247 E30.1879
G1 X112.735 Y114.421 E30.32093
G1 X111.74 Y115.455 E30.45141
G1 X109.349 Y117.129 E30.71681
G1 X107.959 Y117.738 E30.8548
G1 X106.532 Y118.159 E30.99009
G1 X104.252 Y118.432 E31.19889
G1 X95.573 Y118.423 E31.98807
G1 X93.711 Y118.209 E32.1585
G1 X91.91 Y117.692 E32.32888
G1 X90.278 Y116.923 E32.49293
G1 X88.836 Y115.949 E32.65116
G1 X87.052 Y114.179 E32.87967
G1 X86.193 Y112.953 E33.01579
G1 X81.734 Y105.202 E33.82889
G1 X81.23 Y104.077 E33.94098
G1 X80.852 Y102.917 E34.05192
G1 X80.483 Y100.456 E34.2782
G1 X80.508 Y99.151 E34.39688
G1 X80.675 Y97.861 E34.51516
G1 X81.244 Y95.885 E34.70214
G1 X81.937 Y94.403 E34.8509
G1 X86.334 Y86.82 E35.64795
G1 X87.065 Y85.801 E35.76198
G1 X87.804 Y84.978 E35.86256
G1 X87.804 Y84.978 F7800
G1 X88.269 Y85.395
G1 F1800
G1 X88.336 Y85.32 E35.8717
G1 X90.203 Y83.838 E36.08845
G1 X91.392 Y83.195 E36.21136
G1 X92.675 Y82.694 E36.3366
G1 X94.103 Y82.345 E36.47027
G1 X95.448 Y82.201 E36.59327
G1 X104.542 Y82.201 E37.42018
G1 X105.944 Y82.355 E37.54843
G1 X107.324 Y82.693 E37.67762
G1 X109.683 Y83.776 E37.91365
G1 X111.359 Y85.039 E38.10448
G1 X112.431 Y86.183 E38.24704
G1 X113.316 Y87.445 E38.3872
G1 X117.524 Y94.734 E39.15251
G1 X118.277 Y96.411 E39.31967
G1 X118.748 Y98.255 E39.49273
G1 X118.888 Y100.143 E39.66488
G1 X118.698 Y102.018 E39.83625
G1 X118.175 Y103.86 E40.01036
G1 X117.515 Y105.275 E40.15233
G1 X113.095 Y112.889 E40.95287
G1 X112.271 Y114.002 E41.07879
G1 X111.311 Y115 E41.20471
G1 X109.069 Y116.57 E41.45359
G1 X107.763 Y117.145 E41.58334
G1 X106.381 Y117.552 E41.71434
G1 X104.234 Y117.807 E41.91094
G1 X95.627 Y117.8 E42.69357
G1 X93.808 Y117.592 E42.86005
G1 X92.109 Y117.099 E43.02091
G1 X90.568 Y116.369 E43.17596
G1 X89.211 Y115.448 E43.32509
G1 X87.548 Y113.797 E43.53817
G1 X86.728 Y112.629 E43.66794
G1 X82.298 Y104.931 E44.47555
G1 X81.819 Y103.867 E44.58165
G1 X81.455 Y102.748 E44.68865
G1 X81.108 Y100.441 E44.90078
G1 X81.13 Y99.214 E45.01237
G1 X81.291 Y97.965 E45.12688
G1 X81.837 Y96.083 E45.30507
G1 X82.484 Y94.705 E45.44349
G1 X86.851 Y87.171 E46.23532
G1 X87.542 Y86.205 E46.34332
G1 X88.229 Y85.44 E46.43681
G1 X88.229 Y85.44 F7800
G1 X88.694 Y85.857
G1 F1800
G1 X88.784 Y85.757 E46.44904
G1 X90.525 Y84.375 E46.65116
G1 X91.672 Y83.754 E46.76976
G1 X92.882 Y83.284 E46.88779
G1 X94.191 Y82.964 E47.01032
G1 X95.465 Y82.825 E47.12685
G1 X104.524 Y82.826 E47.95058
G1 X105.854 Y82.974 E48.07226
G1 X107.145 Y83.292 E48.19316
G1 X109.39 Y84.329 E48.41802
G1 X110.922 Y85.486 E48.59259
G1 X111.933 Y86.561 E48.72678
G1 X112.782 Y87.77 E48.86111
G1 X116.975 Y95.033 E49.62369
G1 X117.678 Y96.594 E49.77936
G1 X118.127 Y98.33 E49.94241
G1 X118.263 Y100.161 E50.10936
G1 X118.08 Y101.925 E50.27062
G1 X117.582 Y103.663 E50.43502
G1 X116.968 Y104.973 E50.56657
G1 X112.582 Y112.533 E51.36131
G1 X111.806 Y113.584 E51.4801
G1 X110.881 Y114.545 E51.60139
G1 X108.789 Y116.01 E51.83362
G1 X107.53 Y116.564 E51.95869
G1 X106.231 Y116.945 E52.08178
G1 X104.216 Y117.182 E52.26627
G1 X95.678 Y117.177 E53.04263
G1 X93.956 Y116.984 E53.20019
G1 X92.307 Y116.506 E53.35631
G1 X90.86 Y115.816 E53.50208
G1 X89.587 Y114.948 E53.64218
G1 X88.043 Y113.415 E53.84002
G1 X87.262 Y112.305 E53.96343
G1 X82.861 Y104.66 E54.76554
G1 X82.396 Y103.627 E54.86855
G1 X82.057 Y102.58 E54.96862
G1 X81.733 Y100.426 E55.16669
G1 X81.755 Y99.243 E55.27428
G1 X81.908 Y98.071 E55.38175
G1 X82.43 Y96.282 E55.55121
G1 X83.031 Y95.007 E55.67938
G1 X87.368 Y87.522 E56.46599
G1 X88.019 Y86.61 E56.56788
G1 X88.654 Y85.902 E56.65436
G1 X89.118 Y86.32 F7800
G1 F1800
G1 X89.23 Y86.195 E56.66962
G1 X90.846 Y84.911 E56.8573
G1 X91.952 Y84.313 E56.97163
G1 X93.088 Y83.875 E57.08234
G1 X94.28 Y83.583 E57.19393
G1 X95.482 Y83.45 E57.30389
G1 X104.474 Y83.449 E58.12153
G1 X105.725 Y83.586 E58.23596
G1 X106.966 Y83.892 E58.35218
G1 X109.041 Y84.849 E58.55996
G1 X110.486 Y85.935 E58.72432
G1 X111.435 Y86.939 E58.84994
G1 X112.248 Y88.094 E58.97837
G1 X116.427 Y95.333 E59.73842
G1 X117.081 Y96.778 E59.88264
G1 X117.506 Y98.406 E60.03563
G1 X117.639 Y100.125 E60.19241
G1 X117.461 Y101.833 E60.34856
G1 X116.989 Y103.465 E60.50304
G1 X116.421 Y104.67 E60.62417
G1 X112.069 Y112.175 E61.41303
G1 X111.315 Y113.196 E61.52844
G1 X110.453 Y114.09 E61.64136
G1 X108.508 Y115.451 E61.85722
G1 X107.334 Y115.971 E61.97397
G1 X106.08 Y116.338 E62.09278
G1 X104.198 Y116.557 E62.26506
G1 X95.729 Y116.554 E63.03514
G1 X94.104 Y116.376 E63.18378
G1 X92.506 Y115.913 E63.33506
G1 X91.152 Y115.263 E63.47163
G1 X89.964 Y114.449 E63.60258
G1 X88.538 Y113.032 E63.78538
G1 X87.796 Y111.98 E63.90244
G1 X83.424 Y104.388 E64.69906
G1 X82.985 Y103.417 E64.79596
G1 X82.659 Y102.412 E64.89203
G1 X82.358 Y100.41 E65.07612
G1 X82.377 Y99.306 E65.17652
G1 X82.524 Y98.176 E65.28014
G1 X83.022 Y96.482 E65.44069
G1 X83.578 Y95.31 E65.55864
G1 X87.886 Y87.873 E66.34015
G1 X88.517 Y86.987 E66.43906
G1 X89.078 Y86.364 E66.51529
G1 X89.078 Y86.364 F7800
G1 X89.542 Y86.782
G1 F1800
G1 X89.678 Y86.632 E66.5337
G1 X91.169 Y85.447 E66.70688
G1 X92.197 Y84.888 E66.81328
G1 X93.258 Y84.476 E66.91677
G1 X94.37 Y84.201 E67.02093
G1 X95.533 Y84.073 E67.12732
G1 X104.423 Y84.072 E67.93568
G1 X105.636 Y84.204 E68.04663
G1 X106.787 Y84.491 E68.15449
G1 X108.694 Y85.369 E68.34539
G1 X110.051 Y86.384 E68.49948
G1 X110.965 Y87.352 E68.62054
G1 X111.713 Y88.419 E68.73903
G1 X115.878 Y95.632 E69.4964
G1 X116.484 Y96.964 E69.62946
G1 X116.886 Y98.485 E69.77251
G1 X117.014 Y100.089 E69.91882
G1 X116.843 Y101.74 E70.06975
G1 X116.396 Y103.265 E70.21425
G1 X115.874 Y104.368 E70.32521
G1 X111.555 Y111.819 E71.10832
G1 X110.851 Y112.777 E71.21642
G1 X110.024 Y113.634 E71.32471
G1 X108.228 Y114.892 E71.5241
G1 X107.101 Y115.39 E71.63614
G1 X105.932 Y115.731 E71.74687
G1 X104.181 Y115.932 E71.90713
G1 X95.78 Y115.931 E72.67103
G1 X94.199 Y115.758 E72.81565
G1 X92.708 Y115.321 E72.95693
G1 X91.447 Y114.711 E73.0843
G1 X90.342 Y113.951 E73.20625
G1 X89.033 Y112.649 E73.37413
G1 X88.331 Y111.656 E73.48471
G1 X83.987 Y104.116 E74.27596
G1 X83.574 Y103.208 E74.36666
G1 X83.262 Y102.244 E74.45879
G1 X82.984 Y100.395 E74.62881
G1 X83.001 Y99.334 E74.7253
G1 X83.14 Y98.283 E74.8217
G1 X83.614 Y96.684 E74.97335
G1 X84.125 Y95.612 E75.08133
G1 X88.403 Y88.223 E75.85769
G1 X88.994 Y87.392 E75.95041
G1 X89.502 Y86.827 E76.0195
G1 X89.502 Y86.827 F7800
G1 X89.965 Y87.246
G1 F1800
G1 X90.124 Y87.071 E76.041
G1 X91.492 Y85.982 E76.19999
G1 X92.442 Y85.463 E76.29842
G1 X93.465 Y85.066 E76.3982
G1 X94.497 Y84.813 E76.49482
G1 X95.583 Y84.696 E76.59414
G1 X104.373 Y84.695 E77.39341
G1 X105.506 Y84.816 E77.49702
G1 X106.608 Y85.09 E77.60028
G1 X108.347 Y85.89 E77.77434
G1 X109.617 Y86.834 E77.91823
G1 X110.467 Y87.73 E78.03053
G1 X111.179 Y88.743 E78.14312
G1 X115.33 Y95.932 E78.89796
G1 X115.886 Y97.15 E79.01971
G1 X116.274 Y98.617 E79.15769
G1 X116.389 Y100.107 E79.29358
G1 X116.225 Y101.644 E79.43413
G1 X115.804 Y103.063 E79.56872
G1 X115.327 Y104.065 E79.66963
G1 X111.041 Y111.463 E80.44707
G1 X110.36 Y112.39 E80.55166
G1 X109.597 Y113.177 E80.65133
G1 X107.946 Y114.334 E80.83465
G1 X106.906 Y114.796 E80.93813
G1 X105.783 Y115.123 E81.04448
G1 X104.163 Y115.308 E81.19274
G1 X95.829 Y115.308 E81.95055
G1 X94.348 Y115.15 E82.08598
G1 X92.909 Y114.729 E82.22231
G1 X91.743 Y114.16 E82.34028
G1 X90.72 Y113.453 E82.45335
G1 X89.527 Y112.266 E82.60638
G1 X88.865 Y111.331 E82.71055
G1 X84.549 Y103.844 E83.49636
G1 X84.15 Y102.966 E83.58405
G1 X83.864 Y102.077 E83.66897
G1 X83.609 Y100.378 E83.82519
G1 X83.623 Y99.398 E83.91431
G1 X83.757 Y98.39 E84.00677
G1 X84.206 Y96.887 E84.14941
G1 X84.672 Y95.915 E84.24743
G1 X88.921 Y88.573 E85.01877
G1 X89.493 Y87.769 E85.10849
G1 X89.925 Y87.29 E85.16714
G1 X89.925 Y87.29 F7800
G1 X90.389 Y87.709
G1 F1800
G1 X90.57 Y87.508 E85.19174
G1 X91.817 Y86.517 E85.33657
G1 X92.689 Y86.038 E85.42704
G1 X93.634 Y85.668 E85.51932
G1 X94.625 Y85.425 E85.6121
G1 X95.632 Y85.32 E85.70416
G1 X104.325 Y85.318 E86.49461
G1 X105.377 Y85.428 E86.59079
G1 X106.429 Y85.69 E86.68937
G1 X108.002 Y86.412 E86.84675
G1 X109.184 Y87.286 E86.98042
G1 X109.97 Y88.11 E87.08397
G1 X110.645 Y89.068 E87.19053
G1 X114.781 Y96.232 E87.94272
G1 X115.29 Y97.338 E88.05343
G1 X115.653 Y98.694 E88.18107
G1 X115.763 Y100.126 E88.31166
G1 X115.607 Y101.546 E88.44156
G1 X115.213 Y102.859 E88.56621
G1 X114.78 Y103.762 E88.65727
G1 X110.527 Y111.108 E89.42911
G1 X109.896 Y111.971 E89.52632
G1 X109.169 Y112.721 E89.6213
G1 X107.664 Y113.775 E89.78837
G1 X106.672 Y114.217 E89.88712
G1 X105.636 Y114.515 E89.98514
G1 X104.146 Y114.683 E90.12148
G1 X95.846 Y114.683 E90.8762
G1 X94.443 Y114.532 E91.00451
G1 X93.113 Y114.138 E91.13064
G1 X92.04 Y113.611 E91.23934
G1 X91.1 Y112.956 E91.34352
G1 X90.021 Y111.883 E91.48189
G1 X89.399 Y111.006 E91.57966
G1 X85.111 Y103.57 E92.36018
G1 X84.739 Y102.757 E92.44148
G1 X84.467 Y101.91 E92.52237
G1 X84.234 Y100.361 E92.6648
G1 X84.248 Y99.426 E92.74983
G1 X84.372 Y98.498 E92.83496
G1 X84.797 Y97.091 E92.96861
G1 X85.218 Y96.218 E93.05674
G1 X89.44 Y88.922 E93.82323
G1 X89.969 Y88.174 E93.90654
G1 X90.348 Y87.754 E93.95798
G1 X90.348 Y87.754 F7800
G1 X90.812 Y88.173
G1 F1800
G1 X91.017 Y87.946 E93.98579
G1 X92.141 Y87.052 E94.11638
G1 X92.972 Y86.595 E94.20262
G1 X93.84 Y86.259 E94.28725
G1 X94.751 Y86.038 E94.37249
G1 X95.679 Y85.943 E94.45731
G1 X104.276 Y85.941 E95.23903
G1 X105.289 Y86.047 E95.33164
G1 X106.248 Y86.288 E95.42155
G1 X107.658 Y86.935 E95.56261
G1 X108.751 Y87.737 E95.68588
G1 X109.502 Y88.524 E95.7848
G1 X110.111 Y89.392 E95.88122
G1 X114.233 Y96.533 E96.63096
G1 X114.694 Y97.528 E96.73067
G1 X115.033 Y98.774 E96.84809
G1 X115.139 Y100.09 E96.96814
G1 X114.999 Y101.397 E97.08766
G1 X114.639 Y102.612 E97.20289
G1 X114.233 Y103.46 E97.28838
G1 X110.011 Y110.754 E98.05472
G1 X109.432 Y111.552 E98.14437
G1 X108.741 Y112.265 E98.23465
G1 X107.381 Y113.217 E98.3856
G1 X106.477 Y113.622 E98.47567
G1 X105.488 Y113.907 E98.56926
G1 X104.129 Y114.058 E98.69359
G1 X95.863 Y114.058 E99.44521
G1 X94.54 Y113.914 E99.56622
G1 X93.319 Y113.547 E99.68215
G1 X92.34 Y113.062 E99.7815
G1 X91.481 Y112.46 E99.87688
G1 X90.514 Y111.498 E100.00091
